icon/ii/cloud-download.svg

<svg xmlns="http://www.w3.org/2000/svg" viewBox="0 0 8 8" height="1em" width="1em">
  <path d="M4.5 0c-1.21 0-2.27.86-2.5 2-1.1 0-2 .9-2 2 0 .37.11.71.28 1h2.72v-.5c0-.83.67-1.5 1.5-1.5s1.5.67 1.5 1.5v.5h1.91c.06-.16.09-.32.09-.5 0-.65-.42-1.29-1-1.5v-.5c0-1.38-1.12-2.5-2.5-2.5zm-.16 4a.5.5 0 0 0-.34.5v1.5h-1.5l2 2 2-2h-1.5v-1.5a.5.5 0 0 0-.59-.5.5.5 0 0 0-.06 0z"/>
</svg>

<svg xmlns="http://www.w3.org/2000/svg" width="8" height="8"><path d="M4.5 0C3.29 0 2.23.86 2 2 .9 2 0 2.9 0 4c0 .37.11.71.28 1H3v-.5C3 3.67 3.67 3 4.5 3S6 3.67 6 4.5V5h1.91c.06-.16.09-.32.09-.5 0-.65-.42-1.29-1-1.5v-.5A2.5 2.5 0 0 0 4.5 0zm-.16 4a.5.5 0 0 0-.34.5V6H2.5l2 2 2-2H5V4.5a.5.5 0 0 0-.59-.5.5.5 0 0 0-.06 0z"/></svg>
